brandFactory_export/3.Masa/Data Alert_3Masa.svg

<?xml version="1.0" encoding="UTF-8"?>
<svg width="24px" height="24px" viewBox="0 0 24 24" version="1.1" xmlns="http://www.w3.org/2000/svg" xmlns:xlink="http://www.w3.org/1999/xlink">
    <title>3.Masa/Data Alert_3Masa</title>
    <g id="Symbols" stroke="none" stroke-width="1" fill="none" fill-rule="evenodd">
        <g id="3.Masa/Data-Alert_3Masa" fill="#5CB615" fill-rule="nonzero">
            <path d="M7.78823529,19.1798319 C7.37815126,19.1798319 7.0487395,18.8436975 7.0487395,18.4336134 L7.0487395,13.6067227 C7.0487395,13.1932773 7.38151261,12.8605042 7.78823529,12.8605042 C8.19495798,12.8605042 8.52773109,13.1966387 8.52773109,13.6067227 L8.52773109,18.4336134 C8.52773109,18.8470588 8.19495798,19.1798319 7.78823529,19.1798319 Z M7.78823529,19.6 C8.20504202,19.6 8.54117647,19.9394958 8.54117647,20.3596639 C8.54117647,20.7798319 8.20504202,21.1193277 7.78823529,21.1193277 C7.37142857,21.1193277 7.03529412,20.7798319 7.03529412,20.3596639 C7.03529412,19.9394958 7.37142857,19.6 7.78823529,19.6 Z M11.3008403,16.9277311 L8.17142857,10.5781513 L7.84537815,9.9092437 L1.7210084,22.0806723 L13.405042,22.1310924 L13.8689076,22.1310924 L11.902521,18.1546218 L11.3008403,16.9277311 Z M15.7243697,11.0252101 C13.6806723,11.0252101 11.7546218,10.7865546 10.292437,10.3462185 C10.0470588,10.2655462 9.80840336,10.1781513 9.58319328,10.087395 L10.2453782,11.4319328 C11.7647059,11.8621849 13.6907563,12.1008403 15.7243697,12.1008403 C17.8756303,12.1008403 19.9226891,11.8420168 21.4621849,11.3647059 C22.3428571,11.1058824 23.0823529,10.7361345 23.6571429,10.2991597 L23.6571429,15.0823529 C23.3882353,15.5798319 22.5983193,16.2487395 21.1563025,16.6991597 C19.7042017,17.1361345 17.7781513,17.3848739 15.7243697,17.3848739 C14.8067227,17.3848739 13.9260504,17.3243697 13.0957983,17.2268908 L13.6571429,18.3731092 C14.3294118,18.4235294 15.0218487,18.4638655 15.7210084,18.4638655 C17.8722689,18.4638655 19.9193277,18.205042 21.4588235,17.7277311 C22.3394958,17.4689076 23.0789916,17.0991597 23.6537815,16.6521008 L23.6537815,20.907563 C23.6537815,21.7445378 22.8033613,22.4336134 21.1428571,22.9411765 C19.6806723,23.3781513 17.7445378,23.6302521 15.7109244,23.6302521 C15.3546218,23.6302521 14.9983193,23.6201681 14.6453782,23.6 C14.5680672,23.6201681 14.4773109,23.6302521 14.389916,23.6302521 L14.3596639,23.6302521 L1.18655462,23.5798319 C0.897478992,23.5495798 0.601680672,23.4689076 0.386554622,23.2504202 C0.157983193,23.0386555 0.0302521008,22.7428571 0.0302521008,22.4336134 C0.0302521008,22.2453782 0.0705882353,22.0436975 0.157983193,21.8756303 L6.80336134,8.66890756 C6.93109244,8.4 7.1697479,8.18151261 7.46554622,8.08067227 C7.56302521,8.05042017 7.66386555,8.05042017 7.77142857,8.04033613 L7.77142857,3.97310924 C8.30252101,4.40336134 9.03529412,4.7697479 9.98319328,5.0487395 C11.5428571,5.52605042 13.5798319,5.78487395 15.7210084,5.78487395 C17.8655462,5.78487395 19.9092437,5.52605042 21.4588235,5.0487395 C22.3865546,4.7697479 23.1193277,4.42016807 23.6537815,3.99327731 L23.6537815,8.72941176 C23.3848739,9.23697479 22.594958,9.90588235 21.1529412,10.3529412 C19.707563,10.7865546 17.7815126,11.0252101 15.7243697,11.0252101 L15.7243697,11.0252101 Z M7.84537815,2.36302521 C7.84537815,2.35294118 7.84537815,2.35294118 7.83529412,2.34285714 C8.06386555,1.68403361 8.90084034,1.10588235 10.2756303,0.68907563 C11.7378151,0.242016807 13.6739496,0.00336134454 15.7176471,0.00336134454 C17.7714286,0.00336134454 19.697479,0.242016807 21.1495798,0.68907563 C22.6016807,1.12941176 23.4218487,1.70756303 23.6,2.39327731 C23.6,2.39327731 23.589916,2.41344538 23.589916,2.42352941 C23.3445378,3.05210084 22.5142857,3.6 21.1596639,4.00672269 C19.697479,4.45714286 17.7815126,4.70588235 15.7277311,4.70588235 C13.6840336,4.70588235 11.7579832,4.45714286 10.2957983,4.00672269 C8.91092437,3.58655462 8.07394958,3.01848739 7.84537815,2.36302521 Z" id="Data-Alert_3Masa"></path>
        </g>
    </g>
</svg>

<svg width="24" height="24" viewBox="0 0 24 24" xmlns="http://www.w3.org/2000/svg"><path d="M7.788 19.18a.743.743 0 01-.74-.746v-4.827c0-.414.334-.746.74-.746.407 0 .74.336.74.746v4.827a.743.743 0 01-.74.746zm0 .42c.417 0 .753.34.753.76s-.336.76-.753.76a.755.755 0 01-.753-.76c0-.42.336-.76.753-.76zm3.513-2.672l-3.13-6.35-.326-.669-6.124 12.172 11.684.05h.464l-1.966-3.976-.602-1.227zm4.423-5.903c-2.043 0-3.97-.238-5.432-.679-.245-.08-.484-.168-.709-.259l.662 1.345c1.52.43 3.446.669 5.48.669 2.15 0 4.198-.259 5.737-.736.88-.26 1.62-.629 2.195-1.066v4.783c-.269.498-1.059 1.167-2.5 1.617-1.453.437-3.379.686-5.433.686-.917 0-1.798-.06-2.628-.158l.561 1.146c.672.05 1.365.09 2.064.09 2.151 0 4.198-.258 5.738-.735.88-.26 1.62-.629 2.195-1.076v4.256c0 .837-.85 1.526-2.511 2.033-1.462.437-3.398.69-5.432.69-.356 0-.713-.01-1.066-.031-.077.02-.168.03-.255.03h-.03l-13.173-.05c-.29-.03-.585-.111-.8-.33a1.112 1.112 0 01-.357-.816c0-.189.04-.39.128-.558L6.803 8.669c.128-.269.367-.487.663-.588.097-.03.198-.03.305-.04V3.972c.532.43 1.264.797 2.212 1.076 1.56.477 3.597.736 5.738.736 2.145 0 4.188-.259 5.738-.736.928-.28 1.66-.629 2.195-1.056V8.73c-.27.508-1.059 1.177-2.501 1.624-1.445.434-3.371.672-5.429.672zM7.845 2.363c0-.01 0-.01-.01-.02.229-.659 1.066-1.237 2.44-1.654 1.463-.447 3.399-.686 5.443-.686 2.053 0 3.98.239 5.432.686 1.452.44 2.272 1.019 2.45 1.704 0 0-.01.02-.01.03-.245.63-1.076 1.177-2.43 1.584-1.463.45-3.378.699-5.432.699-2.044 0-3.97-.249-5.432-.7-1.385-.42-2.222-.988-2.45-1.643z" fill="#5CB615" fill-rule="nonzero"/></svg>
